src/assets/hero-star.svg

<svg width="103" height="103" viewBox="0 0 103 103" fill="none" xmlns="http://www.w3.org/2000/svg">
<g clip-path="url(#clip0_220_89)">
<rect opacity="0.15" x="19.0974" y="-4.50313" width="91.1888" height="91.1888" rx="19.0777" transform="rotate(15 19.0974 -4.50313)" fill="url(#paint0_linear_220_89)" stroke="white" stroke-width="0.811381"/>
<g filter="url(#filter0_di_220_89)">
<g clip-path="url(#clip1_220_89)">
<rect x="25.7695" y="7.39258" width="71" height="71" rx="16.0323" transform="rotate(15 25.7695 7.39258)" fill="#EE412A"/>
<rect x="25.7695" y="7.39258" width="71" height="71" rx="16.0323" transform="rotate(15 25.7695 7.39258)" fill="url(#paint1_linear_220_89)"/>
<rect x="25.7695" y="7.39258" width="71" height="71" rx="16.0323" transform="rotate(15 25.7695 7.39258)" fill="url(#paint2_linear_220_89)" fill-opacity="0.2"/>
<rect x="25.7695" y="7.39258" width="71" height="71" rx="16.0323" transform="rotate(15 25.7695 7.39258)" fill="url(#paint3_linear_220_89)" fill-opacity="0.1"/>
<path opacity="0.15" d="M30.4574 48.7206C30.9577 46.8535 32.8769 45.7454 34.744 46.2457L71.4492 56.0808C73.3163 56.5811 74.4244 58.5003 73.9241 60.3674V60.3674C73.4238 62.2346 71.5046 63.3426 69.6375 62.8423L32.9323 53.0072C31.0652 52.5069 29.9571 50.5877 30.4574 48.7206V48.7206Z" fill="url(#paint4_linear_220_89)"/>
<path opacity="0.15" d="M34.2094 34.7147C34.7097 32.8476 36.6288 31.7396 38.496 32.2399L75.2012 42.075C77.0683 42.5753 78.1763 44.4945 77.676 46.3616V46.3616C77.1757 48.2287 75.2566 49.3367 73.3894 48.8365L36.6842 39.0013C34.8171 38.501 33.7091 36.5819 34.2094 34.7147V34.7147Z" fill="url(#paint5_linear_220_89)"/>
<path opacity="0.15" d="M26.7035 62.7264C27.2038 60.8593 29.123 59.7513 30.9901 60.2516L51.2746 65.6868C53.1417 66.1871 54.2497 68.1062 53.7494 69.9734V69.9734C53.2491 71.8405 51.33 72.9485 49.4628 72.4482L29.1784 67.0131C27.3113 66.5128 26.2032 64.5936 26.7035 62.7264V62.7264Z" fill="url(#paint6_linear_220_89)"/>
<path d="M28.3031 44.3065C28.8034 42.4394 30.7226 41.3314 32.5897 41.8316L69.2949 51.6668C71.162 52.1671 72.2701 54.0862 71.7698 55.9534V55.9534C71.2695 57.8205 69.3503 58.9285 67.4832 58.4282L30.778 48.5931C28.9109 48.0928 27.8028 46.1737 28.3031 44.3065V44.3065Z" fill="url(#paint7_linear_220_89)"/>
<path d="M32.0551 30.3007C32.5554 28.4335 34.4745 27.3255 36.3417 27.8258L73.0469 37.6609C74.914 38.1612 76.022 40.0804 75.5217 41.9475V41.9475C75.0214 43.8146 73.1023 44.9227 71.2351 44.4224L34.5299 34.5873C32.6628 34.087 31.5548 32.1678 32.0551 30.3007V30.3007Z" fill="url(#paint8_linear_220_89)"/>
<path d="M24.5492 58.3124C25.0495 56.4452 26.9687 55.3372 28.8358 55.8375L49.1203 61.2727C50.9874 61.773 52.0954 63.6922 51.5951 65.5593V65.5593C51.0948 67.4264 49.1757 68.5345 47.3085 68.0342L27.0241 62.599C25.157 62.0987 24.0489 60.1795 24.5492 58.3124V58.3124Z" fill="url(#paint9_linear_220_89)"/>
<g opacity="0.5" filter="url(#filter1_f_220_89)">
<rect x="72.7344" y="88.7402" width="61.8387" height="61.8387" rx="9.16129" transform="rotate(-165 72.7344 88.7402)" fill="url(#paint10_linear_220_89)"/>
</g>
<rect opacity="0.1" x="28.4017" y="11.9502" width="63.5565" height="63.5565" rx="13.7137" transform="rotate(15 28.4017 11.9502)" stroke="white" stroke-width="0.572581"/>
</g>
<rect x="26.1744" y="8.09384" width="69.8548" height="69.8548" rx="15.4597" transform="rotate(15 26.1744 8.09384)" stroke="white" stroke-opacity="0.15" stroke-width="1.14516"/>
</g>
</g>
<defs>
<filter id="filter0_di_220_89" x="-26.9623" y="-17.801" width="155.667" height="155.667" filterUnits="userSpaceOnUse" color-interpolation-filters="sRGB">
<feFlood flood-opacity="0" result="BackgroundImageFix"/>
<feColorMatrix in="SourceAlpha" type="matrix" values="0 0 0 0 0 0 0 0 0 0 0 0 0 0 0 0 0 0 127 0" result="hardAlpha"/>
<feOffset dy="9.16129"/>
<feGaussianBlur stdDeviation="17.1774"/>
<feComposite in2="hardAlpha" operator="out"/>
<feColorMatrix type="matrix" values="0 0 0 0 0 0 0 0 0 0 0 0 0 0 0 0 0 0 0.6 0"/>
<feBlend mode="normal" in2="BackgroundImageFix" result="effect1_dropShadow_220_89"/>
<feBlend mode="normal" in="SourceGraphic" in2="effect1_dropShadow_220_89" result="shape"/>
<feColorMatrix in="SourceAlpha" type="matrix" values="0 0 0 0 0 0 0 0 0 0 0 0 0 0 0 0 0 0 127 0" result="hardAlpha"/>
<feOffset dy="-0.71"/>
<feGaussianBlur stdDeviation="6.12661"/>
<feComposite in2="hardAlpha" operator="arithmetic" k2="-1" k3="1"/>
<feColorMatrix type="matrix" values="0 0 0 0 0.133333 0 0 0 0 0.133333 0 0 0 0 0.133333 0 0 0 0.5 0"/>
<feBlend mode="normal" in2="shape" result="effect2_innerShadow_220_89"/>
</filter>
<filter id="filter1_f_220_89" x="8.18763" y="8.18958" width="85.3669" height="85.365" filterUnits="userSpaceOnUse" color-interpolation-filters="sRGB">
<feFlood flood-opacity="0" result="BackgroundImageFix"/>
<feBlend mode="normal" in="SourceGraphic" in2="BackgroundImageFix" result="shape"/>
<feGaussianBlur stdDeviation="3.43548" result="effect1_foregroundBlur_220_89"/>
</filter>
<linearGradient id="paint0_linear_220_89" x1="21.3661" y1="-8.40741" x2="53.7365" y2="34.1853" gradientUnits="userSpaceOnUse">
<stop stop-color="white"/>
<stop offset="1" stop-color="white" stop-opacity="0"/>
</linearGradient>
<linearGradient id="paint1_linear_220_89" x1="25.7695" y1="94.4248" x2="118.909" y2="43.372" gradientUnits="userSpaceOnUse">
<stop stop-color="#3A1C71"/>
<stop offset="0.5" stop-color="#D76D77"/>
<stop offset="1" stop-color="#FFCA7B"/>
</linearGradient>
<linearGradient id="paint2_linear_220_89" x1="54.4082" y1="95.3358" x2="119.666" y2="32.1703" gradientUnits="userSpaceOnUse">
<stop stop-color="white" stop-opacity="0"/>
<stop offset="0.5" stop-opacity="0.8"/>
<stop offset="1" stop-color="white" stop-opacity="0"/>
</linearGradient>
<linearGradient id="paint3_linear_220_89" x1="61.2695" y1="7.39258" x2="61.2695" y2="78.3926" gradientUnits="userSpaceOnUse">
<stop stop-color="white"/>
<stop offset="1" stop-color="#93959F"/>
</linearGradient>
<linearGradient id="paint4_linear_220_89" x1="53.0966" y1="51.1633" x2="51.2849" y2="57.9248" gradientUnits="userSpaceOnUse">
<stop stop-color="white"/>
<stop offset="1" stop-color="#CFC0B6"/>
</linearGradient>
<linearGradient id="paint5_linear_220_89" x1="56.8486" y1="37.1574" x2="55.0368" y2="43.9189" gradientUnits="userSpaceOnUse">
<stop stop-color="white"/>
<stop offset="1" stop-color="#CFC0B6"/>
</linearGradient>
<linearGradient id="paint6_linear_220_89" x1="41.1323" y1="62.9692" x2="39.3206" y2="69.7306" gradientUnits="userSpaceOnUse">
<stop stop-color="white"/>
<stop offset="1" stop-color="#CFC0B6"/>
</linearGradient>
<linearGradient id="paint7_linear_220_89" x1="50.9423" y1="46.7492" x2="49.1306" y2="53.5107" gradientUnits="userSpaceOnUse">
<stop stop-color="white"/>
<stop offset="1" stop-color="#CFC0B6"/>
</linearGradient>
<linearGradient id="paint8_linear_220_89" x1="54.6943" y1="32.7433" x2="52.8825" y2="39.5048" gradientUnits="userSpaceOnUse">
<stop stop-color="white"/>
<stop offset="1" stop-color="#CFC0B6"/>
</linearGradient>
<linearGradient id="paint9_linear_220_89" x1="38.978" y1="58.5551" x2="37.1663" y2="65.3166" gradientUnits="userSpaceOnUse">
<stop stop-color="white"/>
<stop offset="1" stop-color="#CFC0B6"/>
</linearGradient>
<linearGradient id="paint10_linear_220_89" x1="74.4521" y1="86.4499" x2="88.7666" y2="100.764" gradientUnits="userSpaceOnUse">
<stop stop-color="white"/>
<stop offset="1" stop-color="white" stop-opacity="0"/>
</linearGradient>
<clipPath id="clip0_220_89">
<rect width="103" height="103" fill="white"/>
</clipPath>
<clipPath id="clip1_220_89">
<rect x="25.7695" y="7.39258" width="71" height="71" rx="16.0323" transform="rotate(15 25.7695 7.39258)" fill="white"/>
</clipPath>
</defs>
</svg>

<svg xmlns="http://www.w3.org/2000/svg" width="103" height="103" fill="none" viewBox="0 0 103 103"><g clip-path="url(#a)"><rect width="91.189" height="91.189" x="19.097" y="-4.503" fill="url(#b)" stroke="#fff" stroke-width=".811" opacity=".15" rx="19.078" transform="rotate(15 19.097 -4.503)"/><g filter="url(#c)"><g clip-path="url(#d)"><rect width="71" height="71" x="25.77" y="7.393" fill="#ee412a" rx="16.032" transform="rotate(15 25.77 7.393)"/><rect width="71" height="71" x="25.77" y="7.393" fill="url(#e)" rx="16.032" transform="rotate(15 25.77 7.393)"/><rect width="71" height="71" x="25.77" y="7.393" fill="url(#f)" fill-opacity=".2" rx="16.032" transform="rotate(15 25.77 7.393)"/><rect width="71" height="71" x="25.77" y="7.393" fill="url(#g)" fill-opacity=".1" rx="16.032" transform="rotate(15 25.77 7.393)"/><path fill="url(#h)" d="M30.457 48.72a3.5 3.5 0 0 1 4.287-2.474l36.705 9.835a3.5 3.5 0 1 1-1.812 6.761l-36.705-9.835a3.5 3.5 0 0 1-2.475-4.286" opacity=".15"/><path fill="url(#i)" d="M34.21 34.715a3.5 3.5 0 0 1 4.286-2.475l36.705 9.835a3.5 3.5 0 0 1-1.812 6.761l-36.705-9.835a3.5 3.5 0 0 1-2.475-4.286" opacity=".15"/><path fill="url(#j)" d="M26.704 62.726a3.5 3.5 0 0 1 4.286-2.474l20.285 5.435a3.5 3.5 0 1 1-1.812 6.761l-20.285-5.435a3.5 3.5 0 0 1-2.475-4.287" opacity=".15"/><path fill="url(#k)" d="M28.303 44.307a3.5 3.5 0 0 1 4.287-2.475l36.705 9.835a3.5 3.5 0 1 1-1.812 6.761l-36.705-9.835a3.5 3.5 0 0 1-2.475-4.287"/><path fill="url(#l)" d="M32.055 30.3a3.5 3.5 0 0 1 4.287-2.474l36.705 9.835a3.5 3.5 0 0 1-1.812 6.762L34.53 34.586a3.5 3.5 0 0 1-2.475-4.286"/><path fill="url(#m)" d="M24.55 58.312a3.5 3.5 0 0 1 4.286-2.474l20.284 5.435a3.5 3.5 0 0 1-1.812 6.761L27.025 62.6a3.5 3.5 0 0 1-2.475-4.287"/><g filter="url(#n)" opacity=".5"><rect width="61.839" height="61.839" x="72.734" y="88.74" fill="url(#o)" rx="9.161" transform="rotate(-165 72.734 88.74)"/></g><rect width="63.556" height="63.556" x="28.402" y="11.95" stroke="#fff" stroke-width=".573" opacity=".1" rx="13.714" transform="rotate(15 28.402 11.95)"/></g><rect width="69.855" height="69.855" x="26.174" y="8.094" stroke="#fff" stroke-opacity=".15" stroke-width="1.145" rx="15.46" transform="rotate(15 26.174 8.094)"/></g></g><defs><linearGradient id="b" x1="21.366" x2="53.736" y1="-8.407" y2="34.185" gradientUnits="userSpaceOnUse"><stop stop-color="#fff"/><stop offset="1" stop-color="#fff" stop-opacity="0"/></linearGradient><linearGradient id="e" x1="25.77" x2="118.909" y1="94.425" y2="43.372" gradientUnits="userSpaceOnUse"><stop stop-color="#3a1c71"/><stop offset=".5" stop-color="#d76d77"/><stop offset="1" stop-color="#ffca7b"/></linearGradient><linearGradient id="f" x1="54.408" x2="119.666" y1="95.336" y2="32.17" gradientUnits="userSpaceOnUse"><stop stop-color="#fff" stop-opacity="0"/><stop offset=".5" stop-opacity=".8"/><stop offset="1" stop-color="#fff" stop-opacity="0"/></linearGradient><linearGradient id="g" x1="61.27" x2="61.27" y1="7.393" y2="78.393" gradientUnits="userSpaceOnUse"><stop stop-color="#fff"/><stop offset="1" stop-color="#93959f"/></linearGradient><linearGradient id="h" x1="53.097" x2="51.285" y1="51.163" y2="57.925" gradientUnits="userSpaceOnUse"><stop stop-color="#fff"/><stop offset="1" stop-color="#cfc0b6"/></linearGradient><linearGradient id="i" x1="56.849" x2="55.037" y1="37.157" y2="43.919" gradientUnits="userSpaceOnUse"><stop stop-color="#fff"/><stop offset="1" stop-color="#cfc0b6"/></linearGradient><linearGradient id="j" x1="41.132" x2="39.321" y1="62.969" y2="69.731" gradientUnits="userSpaceOnUse"><stop stop-color="#fff"/><stop offset="1" stop-color="#cfc0b6"/></linearGradient><linearGradient id="k" x1="50.942" x2="49.131" y1="46.749" y2="53.511" gradientUnits="userSpaceOnUse"><stop stop-color="#fff"/><stop offset="1" stop-color="#cfc0b6"/></linearGradient><linearGradient id="l" x1="54.694" x2="52.883" y1="32.743" y2="39.505" gradientUnits="userSpaceOnUse"><stop stop-color="#fff"/><stop offset="1" stop-color="#cfc0b6"/></linearGradient><linearGradient id="m" x1="38.978" x2="37.166" y1="58.555" y2="65.317" gradientUnits="userSpaceOnUse"><stop stop-color="#fff"/><stop offset="1" stop-color="#cfc0b6"/></linearGradient><linearGradient id="o" x1="74.452" x2="88.767" y1="86.45" y2="100.764" gradientUnits="userSpaceOnUse"><stop stop-color="#fff"/><stop offset="1" stop-color="#fff" stop-opacity="0"/></linearGradient><clipPath id="a"><path fill="#fff" d="M0 0h103v103H0z"/></clipPath><clipPath id="d"><rect width="71" height="71" x="25.77" y="7.393" fill="#fff" rx="16.032" transform="rotate(15 25.77 7.393)"/></clipPath><filter id="c" width="155.667" height="155.667" x="-26.962" y="-17.801" color-interpolation-filters="sRGB" filterUnits="userSpaceOnUse"><feFlood flood-opacity="0" result="BackgroundImageFix"/><feColorMatrix in="SourceAlpha" result="hardAlpha" values="0 0 0 0 0 0 0 0 0 0 0 0 0 0 0 0 0 0 127 0"/><feOffset dy="9.161"/><feGaussianBlur stdDeviation="17.177"/><feComposite in2="hardAlpha" operator="out"/><feColorMatrix values="0 0 0 0 0 0 0 0 0 0 0 0 0 0 0 0 0 0 0.6 0"/><feBlend in2="BackgroundImageFix" result="effect1_dropShadow_220_89"/><feBlend in="SourceGraphic" in2="effect1_dropShadow_220_89" result="shape"/><feColorMatrix in="SourceAlpha" result="hardAlpha" values="0 0 0 0 0 0 0 0 0 0 0 0 0 0 0 0 0 0 127 0"/><feOffset dy="-.71"/><feGaussianBlur stdDeviation="6.127"/><feComposite in2="hardAlpha" k2="-1" k3="1" operator="arithmetic"/><feColorMatrix values="0 0 0 0 0.133333 0 0 0 0 0.133333 0 0 0 0 0.133333 0 0 0 0.5 0"/><feBlend in2="shape" result="effect2_innerShadow_220_89"/></filter><filter id="n" width="85.367" height="85.365" x="8.188" y="8.19" color-interpolation-filters="sRGB" filterUnits="userSpaceOnUse"><feFlood flood-opacity="0" result="BackgroundImageFix"/><feBlend in="SourceGraphic" in2="BackgroundImageFix" result="shape"/><feGaussianBlur result="effect1_foregroundBlur_220_89" stdDeviation="3.435"/></filter></defs></svg>
